X:16
T:Cuckoo's Nest #1
S:Bernie Waugh
R:Reel
M:4/4
L:1/8
K:D Dorian
|:\
"Dm"FEFE D2d2|"Am"A2A2 "G"A3G|"Dm"FEFE D2AB|"C"c2c2 "Am"c3E|
"Dm"FEFE D2d2|"Am"A2A2 "G"A3G|"Dm"FEFE DEFG|"Am"A2A2 "Dm"d4:|
|:\
"Dm"defe d2d2|"F"cBAG A4|"Dm"defg a2f2|"G"g2d2 d2g2|
"Bb"fefe d2d2|"F"cBAG "Am"A3G|"Dm"FEFE DEFG|"Am"A2A2 "Dm"d4:|

